public/seo-increase.svg

<svg width="73" height="95" viewBox="0 0 73 95" fill="none" xmlns="http://www.w3.org/2000/svg">
<g clip-path="url(#clip0_9_36169)">
<path d="M54.1285 71.652L71.6825 61.946L54.2825 51.479L35.8125 61.079L54.1285 71.652Z" fill="#0C5AE5"/>
<path d="M54.1334 72.3542C54.0102 72.3538 53.8892 72.3214 53.7823 72.2602L35.4623 61.6892C35.3528 61.6267 35.2621 61.5357 35.2 61.4259C35.1379 61.3161 35.1067 61.1915 35.1096 61.0654C35.1124 60.9393 35.1493 60.8163 35.2164 60.7094C35.2834 60.6025 35.3781 60.5157 35.4904 60.4582L53.9613 50.8582C54.0678 50.8029 54.1868 50.7758 54.3067 50.7797C54.4267 50.7835 54.5436 50.8181 54.6464 50.8802L72.0464 61.3472C72.1525 61.4103 72.2401 61.5004 72.3002 61.6083C72.3603 61.7162 72.3908 61.8381 72.3886 61.9616C72.3863 62.0851 72.3515 62.2058 72.2875 62.3115C72.2235 62.4171 72.1327 62.504 72.0243 62.5632L54.4703 72.2632C54.3675 72.3215 54.2516 72.3528 54.1334 72.3542ZM37.2723 61.1142L54.1403 70.8472L70.2834 61.9212L54.2593 52.2842L37.2723 61.1142Z" fill="#0C5AE5"/>
<path d="M59.1724 16.5139L47.6164 23.2299L35.9844 16.5139L47.5404 9.79785L59.1724 16.5139Z" fill="white"/>
<path d="M47.6156 23.9319C47.4924 23.9315 47.3715 23.8991 47.2646 23.8379L35.6326 17.1229C35.5258 17.0616 35.4371 16.9732 35.3754 16.8666C35.3137 16.76 35.2812 16.639 35.2812 16.5159C35.2812 16.3928 35.3137 16.2718 35.3754 16.1652C35.4371 16.0586 35.5258 15.9702 35.6326 15.9089L47.1906 9.1929C47.297 9.13146 47.4177 9.09912 47.5406 9.09912C47.6635 9.09912 47.7842 9.13146 47.8906 9.1929L59.5216 15.9089C59.6284 15.9702 59.7171 16.0586 59.7788 16.1652C59.8405 16.2718 59.873 16.3928 59.873 16.5159C59.873 16.639 59.8405 16.76 59.7788 16.8666C59.7171 16.9732 59.6284 17.0616 59.5216 17.1229L47.9656 23.8379C47.8592 23.8994 47.7385 23.9318 47.6156 23.9319ZM37.3846 16.5119L47.6146 22.4189L57.7726 16.5189L47.5426 10.6119L37.3846 16.5119Z" fill="#0C5AE5"/>
<path d="M59.1723 16.5132L59.0013 61.0792L47.4453 67.7952L47.6163 23.2292L59.1723 16.5132Z" fill="#D4E6FC"/>
<path d="M47.4442 68.4961C47.321 68.4957 47.2001 68.4633 47.0932 68.4021C46.9859 68.3404 46.8969 68.2513 46.8352 68.144C46.7736 68.0367 46.7415 67.9149 46.7422 67.7911L46.9132 23.2251C46.9142 23.1034 46.9469 22.984 47.0081 22.8788C47.0693 22.7736 47.1569 22.6861 47.2622 22.6251L58.8182 15.9101C58.9249 15.8475 59.0463 15.8144 59.17 15.814C59.2937 15.8136 59.4153 15.846 59.5224 15.9079C59.6295 15.9698 59.7183 16.0589 59.7798 16.1663C59.8412 16.2737 59.8731 16.3954 59.8722 16.5191L59.7022 61.0851C59.7011 61.2069 59.6683 61.3263 59.6069 61.4316C59.5455 61.5368 59.4577 61.6242 59.3522 61.6851L47.7942 68.4001C47.688 68.4623 47.5673 68.4954 47.4442 68.4961ZM48.3162 23.6331L48.1502 66.5721L58.3012 60.6721L58.4652 17.7331L48.3162 23.6331Z" fill="#0C5AE5"/>
<path d="M47.6155 23.2301L47.4445 67.7962L35.8125 61.0802L35.9835 16.5142L47.6155 23.2301Z" fill="white"/>
<path d="M47.4434 68.497C47.3202 68.4966 47.1993 68.4642 47.0924 68.403L35.4604 61.688C35.3531 61.6263 35.2641 61.5372 35.2024 61.4299C35.1407 61.3225 35.1086 61.2008 35.1094 61.077L35.2804 16.511C35.2812 16.3882 35.3142 16.2678 35.3763 16.1618C35.4383 16.0558 35.5271 15.968 35.6338 15.9072C35.7405 15.8464 35.8613 15.8148 35.9841 15.8154C36.1069 15.8161 36.2274 15.849 36.3334 15.911L47.9654 22.626C48.0727 22.6877 48.1617 22.7768 48.2234 22.8841C48.285 22.9914 48.3171 23.1132 48.3164 23.237L48.1454 67.803C48.1441 67.925 48.1109 68.0445 48.0492 68.1498C47.9874 68.255 47.8993 68.3423 47.7934 68.403C47.6872 68.4649 47.5663 68.4973 47.4434 68.497ZM36.5144 60.673L46.7454 66.579L46.9114 23.63L36.6804 17.723L36.5144 60.673Z" fill="#0C5AE5"/>
<path d="M19.0191 91.0641L36.5731 81.3581L19.1731 70.8911L0.703125 80.4911L19.0191 91.0641Z" fill="#0C5AE5"/>
<path d="M19.0229 91.7659C18.8997 91.766 18.7787 91.7336 18.672 91.6719L0.352964 81.0999C0.243401 81.0373 0.152767 80.9463 0.0906658 80.8365C0.0285641 80.7267 -0.00268766 80.6021 0.000181148 80.476C0.00304996 80.3499 0.0399317 80.2269 0.106962 80.12C0.173993 80.0131 0.268655 79.9264 0.380949 79.8689L18.85 70.2689C18.9565 70.2135 19.0754 70.1864 19.1953 70.1903C19.3153 70.1942 19.4323 70.2288 19.535 70.2909L36.935 80.7569C37.0411 80.82 37.1287 80.9101 37.1888 81.018C37.2489 81.1259 37.2794 81.2478 37.2772 81.3713C37.275 81.4948 37.2401 81.6155 37.1761 81.7211C37.1121 81.8268 37.0214 81.9136 36.913 81.9729L19.3589 91.6809C19.2557 91.7365 19.1402 91.7657 19.0229 91.7659ZM2.16397 80.5239L19.03 90.2579L35.173 81.3319L19.149 71.6949L2.16397 80.5239Z" fill="#0C5AE5"/>
<path d="M36.5738 81.358L54.1278 71.6521L36.7278 61.1851L18.2578 70.785L36.5738 81.358Z" fill="#0C5AE5"/>
<path d="M36.5708 82.0588C36.4476 82.0589 36.3265 82.0265 36.2198 81.9648L17.8998 71.3928C17.7903 71.3303 17.6996 71.2393 17.6375 71.1295C17.5754 71.0197 17.5442 70.8951 17.5471 70.769C17.5499 70.6429 17.5868 70.5199 17.6538 70.413C17.7209 70.3061 17.8156 70.2193 17.9279 70.1618L36.3988 60.5618C36.5053 60.5065 36.6243 60.4794 36.7442 60.4833C36.8642 60.4871 36.9811 60.5217 37.0838 60.5838L54.4839 71.0498C54.59 71.1129 54.6776 71.203 54.7377 71.3109C54.7978 71.4188 54.8283 71.5407 54.8261 71.6642C54.8238 71.7877 54.7889 71.9084 54.725 72.0141C54.661 72.1198 54.5702 72.2066 54.4618 72.2658L36.9078 81.9718C36.8046 82.0287 36.6887 82.0587 36.5708 82.0588ZM19.7128 70.8178L36.5808 80.5518L52.7238 71.6258L36.6998 61.9888L19.7128 70.8178Z" fill="#0C5AE5"/>
<path d="M41.6197 42.7292L30.0637 49.4452L18.4297 42.7292L29.9857 36.0132L41.6197 42.7292Z" fill="white"/>
<path d="M30.0609 50.1472C29.9378 50.1467 29.8169 50.1143 29.7099 50.0532L18.0779 43.3372C17.9711 43.2759 17.8824 43.1875 17.8207 43.0809C17.759 42.9743 17.7266 42.8534 17.7266 42.7302C17.7266 42.6071 17.759 42.4861 17.8207 42.3796C17.8824 42.273 17.9711 42.1846 18.0779 42.1232L29.6359 35.4082C29.7423 35.3468 29.8631 35.3145 29.9859 35.3145C30.1088 35.3145 30.2295 35.3468 30.3359 35.4082L41.9669 42.1232C42.0737 42.1846 42.1624 42.273 42.2241 42.3796C42.2858 42.4861 42.3183 42.6071 42.3183 42.7302C42.3183 42.8534 42.2858 42.9743 42.2241 43.0809C42.1624 43.1875 42.0737 43.2759 41.9669 43.3372L30.4109 50.0532C30.3045 50.1148 30.1838 50.1472 30.0609 50.1472ZM19.8299 42.7272L30.0599 48.6342L40.2179 42.7342L29.9879 36.8272L19.8299 42.7272Z" fill="#0C5AE5"/>
<path d="M41.6176 42.7295L41.4466 70.7855L29.8906 77.5015L30.0616 49.4455L41.6176 42.7295Z" fill="#D4E6FC"/>
<path d="M29.8875 78.2034C29.7951 78.2034 29.7036 78.1851 29.6183 78.1495C29.5329 78.114 29.4555 78.0619 29.3904 77.9963C29.3253 77.9306 29.2739 77.8527 29.2391 77.7671C29.2042 77.6815 29.1867 77.5898 29.1875 77.4974L29.3585 49.4414C29.3595 49.3197 29.3922 49.2003 29.4534 49.0951C29.5146 48.9899 29.6022 48.9024 29.7075 48.8414L41.2635 42.1264C41.3704 42.0637 41.492 42.0306 41.6158 42.0303C41.7397 42.03 41.8615 42.0625 41.9686 42.1247C42.0758 42.1868 42.1646 42.2763 42.2259 42.3839C42.2872 42.4915 42.3188 42.6135 42.3175 42.7374L42.1475 70.7934C42.1464 70.9152 42.1136 71.0347 42.0522 71.1399C41.9908 71.2451 41.903 71.3325 41.7975 71.3934L30.2395 78.1114C30.1324 78.1726 30.0109 78.2043 29.8875 78.2034ZM30.7575 49.8494L30.5965 76.2774L40.7465 70.3774L40.9065 43.9494L30.7575 49.8494Z" fill="#0C5AE5"/>
<path d="M30.0608 49.4465L29.8898 77.5025L18.2578 70.7865L18.4288 42.7305L30.0608 49.4465Z" fill="white"/>
<path d="M29.8887 78.2043C29.7656 78.2039 29.6446 78.1715 29.5377 78.1103L17.9057 71.3943C17.7983 71.3325 17.7091 71.2432 17.6475 71.1357C17.5858 71.0282 17.5538 70.9062 17.5547 70.7823L17.7257 42.7273C17.7265 42.6045 17.7595 42.4841 17.8216 42.3781C17.8836 42.2721 17.9725 42.1843 18.0792 42.1235C18.1858 42.0628 18.3066 42.0311 18.4294 42.0317C18.5522 42.0324 18.6727 42.0653 18.7787 42.1273L30.4107 48.8423C30.5183 48.9042 30.6075 48.9935 30.6692 49.1013C30.7309 49.209 30.7628 49.3311 30.7617 49.4553L30.5907 77.5113C30.5907 77.6969 30.5169 77.875 30.3857 78.0063C30.2544 78.1375 30.0764 78.2113 29.8907 78.2113L29.8887 78.2043ZM18.9617 70.3833L29.1947 76.2913L29.3557 49.8493L19.1227 43.9413L18.9617 70.3833Z" fill="#0C5AE5"/>
<path d="M24.06 66.006L12.504 72.722L0.875 66.006L12.431 59.29L24.06 66.006Z" fill="white"/>
<path d="M12.5072 73.4251C12.3841 73.4247 12.2631 73.3923 12.1562 73.3311L0.523254 66.6151C0.416473 66.5538 0.327742 66.4654 0.266052 66.3588C0.204362 66.2522 0.171875 66.1313 0.171875 66.0081C0.171875 65.885 0.204362 65.764 0.266052 65.6574C0.327742 65.5509 0.416473 65.4625 0.523254 65.4011L12.0762 58.6841C12.1826 58.6227 12.3034 58.5903 12.4262 58.5903C12.5491 58.5903 12.6698 58.6227 12.7762 58.6841L24.4073 65.4001C24.514 65.4614 24.6027 65.5499 24.6644 65.6564C24.7261 65.763 24.7586 65.884 24.7586 66.0071C24.7586 66.1303 24.7261 66.2512 24.6644 66.3578C24.6027 66.4644 24.514 66.5528 24.4073 66.6141L12.8522 73.3301C12.7473 73.3909 12.6285 73.4236 12.5072 73.4251ZM2.27625 66.0041L12.5072 71.9121L22.6642 66.0121L12.4342 60.1051L2.27625 66.0041Z" fill="#0C5AE5"/>
<path d="M24.0629 66.0068L23.8919 80.4908L12.3359 87.2068L12.5069 72.7228L24.0629 66.0068Z" fill="#D4E6FC"/>
<path d="M12.3348 87.905C12.2107 87.9038 12.0891 87.8692 11.9829 87.805C11.8754 87.743 11.7864 87.6536 11.7249 87.5459C11.6634 87.4382 11.6316 87.3161 11.6328 87.192L11.8058 72.708C11.8069 72.5862 11.8398 72.4668 11.9012 72.3616C11.9625 72.2563 12.0503 72.1689 12.1559 72.108L23.7108 65.393C23.818 65.3302 23.94 65.297 24.0642 65.2969C24.1884 65.2967 24.3104 65.3297 24.4177 65.3923C24.525 65.4549 24.6137 65.5449 24.6747 65.6531C24.7357 65.7613 24.7668 65.8838 24.7648 66.008L24.5949 80.492C24.5938 80.6139 24.5609 80.7333 24.4995 80.8385C24.4381 80.9437 24.3504 81.0311 24.2448 81.092L12.6868 87.808C12.5801 87.8709 12.4587 87.9044 12.3348 87.905ZM13.2048 73.125L13.0519 85.975L23.1948 80.081L23.3449 67.231L13.2048 73.125Z" fill="#0C5AE5"/>
<path d="M12.5061 72.7233L12.3351 87.2073L0.703125 80.4913L0.874146 66.0073L12.5061 72.7233Z" fill="white"/>
<path d="M12.3331 87.9053C12.2099 87.9046 12.0891 87.8722 11.9821 87.8113L0.351073 81.0953C0.243024 81.0332 0.153532 80.9434 0.0918264 80.8351C0.0301209 80.7268 -0.00157296 80.604 6.00623e-05 80.4793L0.170073 65.9953C0.170857 65.8726 0.203923 65.7521 0.26596 65.6462C0.327996 65.5402 0.416809 65.4524 0.523498 65.3916C0.630186 65.3308 0.750988 65.2992 0.873778 65.2998C0.996569 65.3005 1.11705 65.3334 1.22308 65.3953L12.8561 72.1113C12.9636 72.1738 13.0527 72.2636 13.1144 72.3716C13.176 72.4796 13.208 72.602 13.2071 72.7263L13.0341 87.2124C13.0326 87.3346 12.9991 87.4542 12.937 87.5595C12.8749 87.6648 12.7863 87.7519 12.6801 87.8123C12.5742 87.8723 12.4548 87.9043 12.3331 87.9053ZM1.40808 80.0853L11.6461 86.0054L11.7991 73.1293L1.56207 67.2183L1.40808 80.0853Z" fill="#0C5AE5"/>
<path d="M2.12401 36.8442C1.96051 36.845 1.80049 36.7971 1.66432 36.7066C1.52816 36.6161 1.42203 36.4871 1.35948 36.336C1.29693 36.185 1.2808 36.0187 1.31313 35.8584C1.34546 35.6982 1.42478 35.5512 1.541 35.4362L31.788 5.26218C31.943 5.10769 32.1531 5.02111 32.3719 5.02149C32.5908 5.02186 32.8005 5.10916 32.955 5.26418C33.1095 5.4192 33.1961 5.62923 33.1957 5.84808C33.1953 6.06694 33.108 6.27668 32.953 6.43117L2.70601 36.6042C2.55136 36.758 2.34211 36.8443 2.12401 36.8442Z" fill="#0C5AE5"/>
<path d="M31.5435 13.949C31.4826 13.9492 31.4219 13.9425 31.3625 13.929C31.1494 13.8809 30.9639 13.7504 30.8468 13.566C30.7296 13.3816 30.6904 13.1583 30.7375 12.945L32.3135 5.89296L24.9545 7.41196C24.7431 7.45004 24.5253 7.40409 24.3473 7.28392C24.1693 7.16375 24.0453 6.97884 24.0016 6.76857C23.9579 6.5583 23.9981 6.3393 24.1135 6.15819C24.2289 5.97708 24.4104 5.84818 24.6195 5.79895L33.2295 4.02095C33.3644 3.99062 33.5049 3.99577 33.6372 4.0359C33.7695 4.07604 33.8891 4.14979 33.9845 4.24995C34.0814 4.34789 34.1523 4.46865 34.1903 4.60111C34.2284 4.73356 34.2326 4.87346 34.2025 5.00795L32.3485 13.308C32.3066 13.4901 32.2042 13.6527 32.058 13.7691C31.9118 13.8855 31.7304 13.949 31.5435 13.949Z" fill="#0C5AE5"/>
</g>
<defs>
<clipPath id="clip0_9_36169">
<rect width="72.385" height="95" fill="white"/>
</clipPath>
</defs>
</svg>

<svg xmlns="http://www.w3.org/2000/svg" width="73" height="95" fill="none" viewBox="0 0 73 95"><g clip-path="url(#a)"><path fill="#0c5ae5" d="m54.129 71.652 17.554-9.706-17.4-10.467-18.47 9.6z"/><path fill="#0c5ae5" d="M54.133 72.354a.7.7 0 0 1-.35-.094l-18.32-10.57a.7.7 0 0 1 .027-1.232l18.471-9.6a.7.7 0 0 1 .685.022l17.4 10.467a.7.7 0 0 1-.022 1.216l-17.554 9.7a.7.7 0 0 1-.337.091m-16.86-11.24 16.867 9.733 16.143-8.926-16.024-9.637z"/><path fill="#fff" d="M59.172 16.514 47.616 23.23l-11.632-6.716L47.54 9.798z"/><path fill="#0c5ae5" d="M47.616 23.932a.7.7 0 0 1-.351-.094l-11.632-6.715a.7.7 0 0 1 0-1.214L47.19 9.193a.7.7 0 0 1 .7 0l11.63 6.716a.7.7 0 0 1 0 1.214l-11.555 6.715a.7.7 0 0 1-.35.094m-10.231-7.42 10.23 5.907 10.158-5.9-10.23-5.907z"/><path fill="#d4e6fc" d="m59.172 16.513-.17 44.566-11.557 6.716.171-44.566z"/><path fill="#0c5ae5" d="M47.444 68.496a.71.71 0 0 1-.609-.352.7.7 0 0 1-.093-.353l.171-44.566a.7.7 0 0 1 .35-.6l11.555-6.715a.7.7 0 0 1 1.054.61l-.17 44.565a.7.7 0 0 1-.35.6L47.794 68.4a.7.7 0 0 1-.35.096m.872-44.863-.166 42.94 10.151-5.9.164-42.94z"/><path fill="#fff" d="m47.616 23.23-.172 44.566-11.632-6.716.172-44.566z"/><path fill="#0c5ae5" d="M47.443 68.497a.7.7 0 0 1-.35-.094L35.46 61.688a.7.7 0 0 1-.35-.611l.17-44.566a.7.7 0 0 1 1.053-.6l11.632 6.715a.7.7 0 0 1 .351.611l-.17 44.566a.7.7 0 0 1-.703.694m-10.929-7.824 10.231 5.906.166-42.949-10.23-5.907zM19.02 91.064l17.553-9.706-17.4-10.467-18.47 9.6z"/><path fill="#0c5ae5" d="M19.023 91.766a.7.7 0 0 1-.351-.094L.353 81.1a.7.7 0 0 1 .028-1.231l18.469-9.6a.7.7 0 0 1 .685.022l17.4 10.466a.7.7 0 0 1-.022 1.216L19.359 91.68a.7.7 0 0 1-.336.085M2.164 80.524l16.866 9.734 16.143-8.926-16.024-9.637z"/><path fill="#0c5ae5" d="m36.574 81.358 17.554-9.706-17.4-10.467-18.47 9.6z"/><path fill="#0c5ae5" d="M36.57 82.059a.7.7 0 0 1-.35-.094L17.9 71.393a.7.7 0 0 1 .028-1.231l18.47-9.6a.7.7 0 0 1 .686.022l17.4 10.466a.7.7 0 0 1-.022 1.216l-17.554 9.706a.7.7 0 0 1-.337.087M19.714 70.818l16.868 9.734 16.143-8.926L36.7 61.989z"/><path fill="#fff" d="m41.62 42.73-11.556 6.715L18.43 42.73l11.556-6.716z"/><path fill="#0c5ae5" d="M30.06 50.147a.7.7 0 0 1-.35-.094l-11.632-6.716a.7.7 0 0 1 0-1.214l11.558-6.715a.7.7 0 0 1 .7 0l11.63 6.715a.7.7 0 0 1 0 1.214l-11.555 6.716a.7.7 0 0 1-.35.094m-10.23-7.42 10.23 5.907 10.158-5.9-10.23-5.907z"/><path fill="#d4e6fc" d="m41.618 42.73-.171 28.056L29.89 77.5l.17-28.056z"/><path fill="#0c5ae5" d="M29.888 78.203a.7.7 0 0 1-.7-.706l.17-28.056a.7.7 0 0 1 .35-.6l11.556-6.715a.7.7 0 0 1 1.053.611l-.17 28.056a.7.7 0 0 1-.35.6L30.24 78.111a.7.7 0 0 1-.352.092m.87-28.354-.162 26.428 10.15-5.9.16-26.428z"/><path fill="#fff" d="m30.06 49.447-.17 28.055-11.632-6.715.17-28.057z"/><path fill="#0c5ae5" d="M29.889 78.204a.7.7 0 0 1-.351-.094l-11.632-6.716a.7.7 0 0 1-.351-.612l.17-28.055a.7.7 0 0 1 1.054-.6l11.632 6.715a.7.7 0 0 1 .35.613l-.17 28.056a.7.7 0 0 1-.7.7zm-10.927-7.82 10.233 5.907.16-26.442-10.232-5.908z"/><path fill="#fff" d="m24.06 66.006-11.556 6.716L.875 66.006l11.556-6.716z"/><path fill="#0c5ae5" d="M12.507 73.425a.7.7 0 0 1-.35-.094L.522 66.615a.7.7 0 0 1 0-1.214l11.553-6.717a.7.7 0 0 1 .7 0L24.407 65.4a.7.7 0 0 1 0 1.214L12.852 73.33a.7.7 0 0 1-.345.095m-10.23-7.42 10.23 5.907 10.157-5.9-10.23-5.907z"/><path fill="#d4e6fc" d="m24.063 66.007-.171 14.484-11.556 6.716.17-14.484z"/><path fill="#0c5ae5" d="M12.335 87.905a.7.7 0 0 1-.352-.1.7.7 0 0 1-.35-.613l.173-14.484a.7.7 0 0 1 .35-.6l11.555-6.715a.7.7 0 0 1 1.054.615l-.17 14.484a.7.7 0 0 1-.35.6l-11.558 6.716a.7.7 0 0 1-.352.097m.87-14.78-.153 12.85 10.143-5.894.15-12.85z"/><path fill="#fff" d="m12.506 72.723-.17 14.484L.702 80.491l.171-14.484z"/><path fill="#0c5ae5" d="M12.333 87.905a.7.7 0 0 1-.35-.094L.35 81.095a.7.7 0 0 1-.35-.616l.17-14.484a.7.7 0 0 1 1.052-.6l11.633 6.716a.7.7 0 0 1 .351.615l-.173 14.486a.7.7 0 0 1-.7.693m-10.925-7.82 10.238 5.92.153-12.876-10.237-5.91zM2.124 36.844a.823.823 0 0 1-.583-1.408L31.788 5.262a.825.825 0 0 1 1.165 1.17L2.706 36.603a.83.83 0 0 1-.582.24"/><path fill="#0c5ae5" d="M31.544 13.949a.826.826 0 0 1-.806-1.004l1.575-7.052-7.359 1.519a.824.824 0 0 1-.335-1.613l8.61-1.778a.8.8 0 0 1 .755.229.82.82 0 0 1 .218.758l-1.853 8.3a.826.826 0 0 1-.805.641"/></g><defs><clipPath id="a"><path fill="#fff" d="M0 0h72.385v95H0z"/></clipPath></defs></svg>
